icons/refactor.svg

<svg xmlns="http://www.w3.org/2000/svg" viewBox="0 0 256 256">
  <path fill="#16a085" d="M0 256h256V0H0z"/>
  <path fill="#fff" d="M51.2 89.6h80V51.2h-80zM32 147.2h99.149v-38.4H32zM51.2 208h80v-38.4h-80z"/>
  <path fill="#8acfc2" d="M131.2 89.6h48.103V51.2H131.2zm0 57.6H208v-38.4h-76.8zm0 60.8h96v-38.4h-96z"/>
</svg>

<?xml version="1.0" encoding="UTF-8" standalone="no"?>
<svg width="256px" height="256px" viewBox="0 0 256 256" version="1.1" xmlns="http://www.w3.org/2000/svg" xmlns:xlink="http://www.w3.org/1999/xlink" preserveAspectRatio="xMidYMid">
	<g>
		<path d="M0,256 L256,256 L256,0 L0,0 L0,256 Z" fill="#16A085"></path>
		<path d="M51.2,89.6 L131.2,89.6 L131.2,51.2 L51.2,51.2 L51.2,89.6 Z M32,147.2 L131.149,147.2 L131.149,108.8 L32,108.8 L32,147.2 Z M51.2,208 L131.2,208 L131.2,169.6 L51.2,169.6 L51.2,208 Z" fill="#FFFFFF"></path>
		<path d="M131.2,89.6 L179.303,89.6 L179.303,51.2 L131.2,51.2 L131.2,89.6 Z M131.2,147.2 L208,147.2 L208,108.8 L131.2,108.8 L131.2,147.2 Z M131.2,208 L227.2,208 L227.2,169.6 L131.2,169.6 L131.2,208 Z" fill="#8ACFC2"></path>
	</g>
</svg>
